X: 3
T:Chester Hornpipe. JaW.003
M:C|
L:1/8
Q:180
C:"This is the best way of playing...."
S:James Winder Ms, Lancashire, 1835-41
R:Hornpipe
O:England
A:Wyresdale,Lancashire
H:1/8
Z:vmp.Chris Partington, Aug 2004
K:D
z2|dBAG F2E2|DFAc d2d2|BcdB gfed|cAB^G A2(Ac)|!
BAGf gfed|cde^g a2(ag)|fafd egec|d2d2 d2:|!
|:z2|defg afed|cdef g2gf|g2(ga) gfed|cAB^G A2Ac|!
BAGB gfed|cAce a2ag|fafd egec|d2d2 d2:|]
